!! 00000] TT[WS
!!!OTL: Jiefu huan xiaoyi
!!!ARE: Asia, China, Shanxi Linxian
!! Ethnic Group: Han
!! WII, 75 (2)
!!!SCT: J0510
!!!YEM: Copyright 1995, estate of Helmut Schaffrath.
**kern
*ICvox
*Ivox
*M2/4
*k[f#c#g#]
*A:
{8b
8ee
8ee
16dd
16b
=1
8ee
8dd
4b
=2
8ee
8b
8a
16g#
16f#
=3
8e
16e
16f#
8c#
8B}
=4
{8b
8b
8ee
8dd
=5
8b
16f#
16c#
4e
=6
8a
16f#
16f#
8e
16f#
16e
=7
2B}
==
!!!AGN: Xiaodiao. Qingge
!!!ONB: ESAC (Essen Associative Code) Database: CHINA
!!!AMT: simple duple
!!!AIN: vox
!!!EED: Helmut Schaffrath
!!!EEV: 1.0
*-
